X:1
T:Title
%%score { ( 1 4 ) | ( 2 3 ) }
L:1/8
Q:1/4=108
M:4/4
K:Ab
V:1 treble nm="Grand Piano"
V:4 treble 
V:2 bass 
V:3 bass 
V:1
 [CE]4 [_C=D]2 [=CE]2 | [Ec]3 [DB] [A,CA]4 | [A,FA]4 [A,EG]2 [A,DF]2 | [CE]8 | %4
w: August~Krapf * *||||
 [CE]4 [_C=D]2 [=CE]2 | c3 B A4 | [=DF]4 [DG]2 [DA]2 | [EB]8 | [GB]4 [Gd]2 [EGc]2 | %9
w: |||||
 [DGB]3 [CA] [CA]4 | [A,FA]4 [A,EG]2 [A,DF]2 | [DF]3 [A,CE] [A,CE]4 | [A,CE]4 [A,DF]2 [B,DG]2 | %13
w: ||||
[M:9/8] [CEA]2 [Ec]- [Ec] [_Ge]2 [Fd]3 |[M:4/4] c4 A2 B2 | [CA]8 | [Fd]4 [FA]2 [=EB]2 | %17
w: ||||
 [Ec]3 [DB] [CA]4 | [A,DF]4 [A,FA]2 [A,DF]2 | [DF]3 [CE] [CE]4 | [CE]4 [CA]2 [Ec]2 | %21
w: ||||
[M:9/8] [_Ge]3 [Fd] [FA]2 [_CF]3 |[M:4/4] [A,CE]4 [A,CA]2 [DB]2 | [CA]8 |] %24
w: |||
V:2
 [A,,A,]4 [A,,A,]2 [A,,A,]2 | [E,G,]3 [E,G,] A,,4 | D,4 D,2 D,F, | A,8 | %4
 [A,,A,]4 [A,,A,]2 [A,,A,]2 | [E,G,E]3 [=E,G,D] [F,A,C]4 | [B,,A,]4 [B,,G,]2 [B,,F,]2 | [E,G,]8 | %8
 [E,D]4 [E,B,]2 E,2 | A,3 A, A,4 | D,4 D,2 D,F, | A,3 A,, A,,4 | A,,4 D,2 B,,2 | %13
[M:9/8] z3 z A,2- A,3 |[M:4/4] [E,A,E]4 [E,A,C]2 [E,G,D]2 | [A,,A,]8 | [D,A,]4 [D,A,]2 [D,A,]2 | %17
 [A,,A,]3 [A,,A,] [A,,A,]4 | D,4 D,2 D,F, | A,3 [A,,A,] [A,,A,]4 | [A,,A,]4 [A,,A,]2 [A,,A,]2 | %21
[M:9/8] [C,A,]3 [D,A,] D,2 =D,3 |[M:4/4] E,4 E,2 [E,G,]2 | [A,,A,]8 |] %24
V:3
 x8 | x8 | x8 | x8 | x8 | x8 | x8 | x8 | x8 | x8 | x8 | x8 | x8 | %13
[M:9/8] A,,2 [A,,A,]- [A,,A,] C,2 D,3 |[M:4/4] x8 | x8 | x8 | x8 | x8 | x8 | x8 |[M:9/8] x9 | %22
[M:4/4] x8 | x8 |] %24
V:4
 x8 | x8 | x8 | x8 | x8 | x8 | x8 | x8 | x8 | x8 | x8 | x8 | x8 |[M:9/8] x9 |[M:4/4] x8 | x8 | x8 | %17
 x8 | x8 | x8 | x8 |[M:9/8] z3 z A,2- A,3 |[M:4/4] x8 | x8 |] %24

